src/topics/icons/bing.svg

<svg height="320" preserveAspectRatio="xMidYMid" viewBox="0 0 256 320" width="256" xmlns="http://www.w3.org/2000/svg"><path d="m95.055 82.908 32.581 70.647 48.144 21.777-173.655 91.363 71.154-63.428v-180.818l-73.279-22.449v268.932l72.83 51.054 183.17-109.106v-78.653z" fill="#f4bd27"/></svg>

<?xml version="1.0" encoding="UTF-8" standalone="no"?>
<svg width="256px" height="320px" viewBox="0 0 256 320" version="1.1" xmlns="http://www.w3.org/2000/svg" xmlns:xlink="http://www.w3.org/1999/xlink" preserveAspectRatio="xMidYMid">
    <g>
        <path d="M95.055,82.908 L127.636,153.555 L175.78,175.332 L2.125,266.695 L73.279,203.267 L73.279,22.449 L0,0 L0,268.932 L72.83,319.986 L256,210.88 L256,132.227 L95.055,82.908" fill="#F4BD27"></path>
    </g>
</svg>
